X: 8
T: The Bluebell Polka
R: barndance
M: 4/4
L: 1/8
K: Gmaj
(3Bdg|b2b2g>f g>e|d2d2B2G2|F>G A>B c2e2|e>d ^c>d B2 (3Bdg|
b2b2g>f g>e|d2d2B2G2|F>G A>B c>d e>f|g2g2g2:|
K:D
z2|A2A2F>A d>f|a2a2f4|a2^g2=g2e2|b2a>^ga4|
A2A2F>A d>f|a2a2f4|a2^g2=g2e2|d2d2d2:|
K:G
(3Bdg|b2b2g>f g>e|d2d2B2G2|F>G A>B c2e2|e>d ^c>d B2 (3Bdg|
b2b2g>f g>e|d2d2B2G2|F>G A>B c>d e>f|g2g2g2:|
K:C
z2|e2e2 e>f g2|e2e2e>f g2|f2f>g f>e d2|f>e f>g f>e d2|
e2e2 e>f g2|e2e2e>f g2|f2f>g f>d B>d|c2c2c2:|


Tune 3352	Setting 3352

